X:1
T:Title
%%score { 1 | 2 }
L:1/8
M:6/8
K:Eb
V:1 treble nm="Grand Piano"
V:2 bass 
V:1
 z3 z2[Q:1/4=100] E | G>FG A>GA | B3 G2 B | [DB][DA][DG] [DF][DG][DA] |[M:5/8] G-G- G3 |[M:1/8] E | %6
[M:3/4] G>F GA- A/G/A | B3 G2 B | [DB][DA] [DG][DF] [DG][DF] |[M:5/8] E-E- E3 |[M:1/8] B | %11
[M:3/4] [Ec]>[Ec] [Ec][EA] [EB][Ec] | B3 G2 B | [DB][DA] [DG][DF] [DG][DA] | %14
[M:5/8] [EG]-[EG]- [EG]3 |[M:1/8] [EB] |[M:3/4] [Ec]>[Ec] [Ec][EA] [EB][Ec] | [EB]3 [B,EG]2 [G,E] | %18
 [CEF][CEG] [CEA][B,EG] [B,EG][A,DF] |[M:5/8] [G,E]-[G,E]- [G,E]3 |] %20
V:2
 z3 z2 [E,G,] | [E,B,E]>[E,B,E][E,B,E] [F,B,D]>[F,B,D][F,B,D] | [G,B,E]3 [E,B,E]2 [E,G,E] | %3
 [B,,F,][B,,F,][B,,F,] [B,,B,][B,,B,][B,,B,] |[M:5/8] [E,B,E]-[E,B,E]- [E,B,E]3 |[M:1/8] [E,G,] | %6
[M:3/4] [E,B,E]>[E,B,E] [E,B,E][F,B,D]- [F,B,D]/[F,B,D]/[F,B,D] | [G,B,E]3 [E,B,E]2 [E,G,E] | %8
 [B,,F,][B,,F,] [B,,B,][B,,A,] [B,,A,][B,,A,] |[M:5/8] [E,G,]-[E,G,]- [E,G,]3 |[M:1/8] [E,G,E] | %11
[M:3/4] [A,,A,]>[A,,A,] [A,,A,][C,A,] [B,,G,][A,,A,] | [E,G,E]3 [E,B,E]2 [E,G,E] | %13
 [B,,F,][B,,F,] [B,,F,][B,,B,] [B,,B,][B,,B,] |[M:5/8] [E,B,]-[E,B,]- [E,B,]3 |[M:1/8] [E,G,] | %16
[M:3/4] [A,,A,]>[A,,A,] [A,,A,][C,A,] [B,,G,][A,,A,] | [E,G,]3 E,2 E, | A,,A,, A,,B,, B,,B,, | %19
[M:5/8] E,-E,- E,3 |] %20

